src/assets/Logo.svg

<svg width="106" height="24" viewBox="0 0 106 24" fill="none" xmlns="http://www.w3.org/2000/svg">
<path fill-rule="evenodd" clip-rule="evenodd" d="M19.2798 7.58594H10.2285C8.03939 7.58594 6.6665 9.13611 6.6665 11.3306V17.2513C6.6665 19.4458 8.03182 20.9959 10.2285 20.9959H19.2787C21.4764 20.9959 22.8428 19.4458 22.8428 17.2513V11.3306C22.8428 9.13611 21.4764 7.58594 19.2798 7.58594Z" stroke="#ADB5BD" stroke-width="1.5" stroke-linecap="round" stroke-linejoin="round"/>
<path d="M10.2144 12.0488H19.2895" stroke="#ADB5BD" stroke-width="1.5" stroke-linecap="round" stroke-linejoin="round"/>
<path d="M18.9275 7.58365L17.3417 4.94056C16.2055 3.06933 14.2402 2.43801 12.3539 3.57524L4.60512 8.23874C2.72631 9.36733 2.34796 11.4029 3.47654 13.2893L6.53797 18.3549C6.68067 18.6003 6.8385 18.8208 7.01903 19.0186V19.0262" stroke="#ADB5BD" stroke-width="1.5" stroke-linecap="round" stroke-linejoin="round"/>
<path d="M34.8043 8.95513H39.9968V18.5H38.3359V10.5587H34.8043V18.5H33.1435V10.5587H31.6164V8.95513H33.1435V8.66878C33.1435 6.14893 34.5371 4.88901 37.3242 4.88901C37.8842 4.88901 38.5396 4.97173 39.2904 5.13718V6.64527C38.4505 6.54345 37.7951 6.49255 37.3242 6.49255C36.4461 6.49255 35.8034 6.65799 35.3961 6.98888C35.0016 7.31977 34.8043 7.87974 34.8043 8.66878V8.95513ZM47.2943 8.70696C48.4142 8.70696 49.3114 9.0633 49.9859 9.77598C50.6604 10.4759 50.9977 11.4304 50.9977 12.6394V18.5H49.3369V12.7349C49.3369 11.9713 49.1269 11.3732 48.7069 10.9405C48.2869 10.5078 47.7079 10.2914 46.9697 10.2914C46.1171 10.2914 45.4426 10.5587 44.9462 11.0932C44.4499 11.615 44.2017 12.3976 44.2017 13.4412V18.5H42.5409V8.95513H44.2017V10.3296C44.8635 9.24783 45.8943 8.70696 47.2943 8.70696ZM57.8023 18.7482C56.3642 18.7482 55.1679 18.2709 54.2134 17.3164C53.2589 16.3492 52.7817 15.1529 52.7817 13.7276C52.7817 12.3022 53.2589 11.1123 54.2134 10.1578C55.1679 9.19057 56.3642 8.70696 57.8023 8.70696C58.744 8.70696 59.5903 8.93604 60.3412 9.39419C61.0921 9.83962 61.652 10.4441 62.0211 11.2077L60.6276 12.0095C60.3858 11.5004 60.0103 11.0932 59.5013 10.7877C59.0049 10.4823 58.4386 10.3296 57.8023 10.3296C56.8478 10.3296 56.046 10.6541 55.397 11.3032C54.7606 11.9649 54.4425 12.7731 54.4425 13.7276C54.4425 14.6693 54.7606 15.4711 55.397 16.1329C56.046 16.7819 56.8478 17.1064 57.8023 17.1064C58.4386 17.1064 59.0113 16.9601 59.5204 16.6674C60.0294 16.3619 60.4176 15.9547 60.6848 15.4456L62.0975 16.2665C61.6775 17.0301 61.0857 17.6346 60.3221 18.08C59.5585 18.5255 58.7186 18.7482 57.8023 18.7482ZM68.4906 8.70696C69.6105 8.70696 70.5077 9.0633 71.1822 9.77598C71.8568 10.4759 72.194 11.4304 72.194 12.6394V18.5H70.5332V12.7349C70.5332 11.9713 70.3232 11.3732 69.9032 10.9405C69.4833 10.5078 68.9042 10.2914 68.1661 10.2914C67.3134 10.2914 66.6389 10.5587 66.1426 11.0932C65.6462 11.615 65.3981 12.3976 65.3981 13.4412V18.5H63.7372V5.13718H65.3981V10.3296C66.0598 9.24783 67.0907 8.70696 68.4906 8.70696ZM83.6756 14.4912H75.677C75.8424 15.3311 76.2306 15.9929 76.8415 16.4765C77.4523 16.9474 78.2159 17.1828 79.1322 17.1828C80.3922 17.1828 81.3085 16.7183 81.8812 15.7893L83.2938 16.591C82.352 18.0291 80.9521 18.7482 79.0941 18.7482C77.5923 18.7482 76.3579 18.2773 75.3906 17.3355C74.4489 16.3683 73.978 15.1657 73.978 13.7276C73.978 12.2767 74.4425 11.0805 75.3716 10.1387C76.3006 9.1842 77.5032 8.70696 78.9795 8.70696C80.3794 8.70696 81.5185 9.20329 82.3966 10.196C83.2874 11.1632 83.7329 12.3467 83.7329 13.7467C83.7329 13.9885 83.7138 14.2366 83.6756 14.4912ZM78.9795 10.2723C78.1014 10.2723 77.3632 10.5205 76.7651 11.0168C76.1797 11.5132 75.817 12.1877 75.677 13.0403H82.053C81.913 12.1622 81.563 11.4813 81.003 10.9977C80.4431 10.5141 79.7686 10.2723 78.9795 10.2723ZM90.1094 18.7482C88.6713 18.7482 87.475 18.2709 86.5206 17.3164C85.5661 16.3492 85.0888 15.1529 85.0888 13.7276C85.0888 12.3022 85.5661 11.1123 86.5206 10.1578C87.475 9.19057 88.6713 8.70696 90.1094 8.70696C91.0512 8.70696 91.8975 8.93604 92.6484 9.39419C93.3992 9.83962 93.9592 10.4441 94.3283 11.2077L92.9347 12.0095C92.6929 11.5004 92.3175 11.0932 91.8084 10.7877C91.3121 10.4823 90.7458 10.3296 90.1094 10.3296C89.1549 10.3296 88.3532 10.6541 87.7041 11.3032C87.0678 11.9649 86.7496 12.7731 86.7496 13.7276C86.7496 14.6693 87.0678 15.4711 87.7041 16.1329C88.3532 16.7819 89.1549 17.1064 90.1094 17.1064C90.7458 17.1064 91.3185 16.9601 91.8275 16.6674C92.3366 16.3619 92.7247 15.9547 92.992 15.4456L94.4046 16.2665C93.9847 17.0301 93.3929 17.6346 92.6293 18.08C91.8657 18.5255 91.0257 18.7482 90.1094 18.7482ZM99.4042 13.5748L104.119 18.5H102.058L97.7052 13.9757V18.5H96.0444V5.13718H97.7052V13.174L101.829 8.95513H103.967L99.4042 13.5748Z" fill="#ADB5BD"/>
</svg>

<svg xmlns="http://www.w3.org/2000/svg" width="106" height="24" fill="none"><path stroke="#ADB5BD" stroke-linecap="round" stroke-linejoin="round" stroke-width="1.5" d="M19.28 7.586h-9.051c-2.19 0-3.562 1.55-3.562 3.745v5.92c0 2.195 1.365 3.745 3.562 3.745h9.05c2.197 0 3.564-1.55 3.564-3.745v-5.92c0-2.195-1.367-3.745-3.563-3.745" clip-rule="evenodd"/><path stroke="#ADB5BD" stroke-linecap="round" stroke-linejoin="round" stroke-width="1.5" d="M10.214 12.049h9.076M18.928 7.584 17.342 4.94c-1.136-1.872-3.102-2.503-4.988-1.366L4.605 8.24c-1.879 1.128-2.257 3.164-1.128 5.05l3.061 5.066c.143.245.3.466.481.664v.007"/><path fill="#ADB5BD" d="M34.804 8.955h5.193V18.5h-1.661v-7.941h-3.532V18.5h-1.66v-7.941h-1.528V8.955h1.528V8.67q0-3.78 4.18-3.78.84 0 1.966.248v1.508q-1.26-.152-1.966-.152-1.317 0-1.928.496-.592.495-.592 1.68zm12.49-.248q1.68 0 2.692 1.069 1.011 1.05 1.012 2.863V18.5h-1.661v-5.765q0-1.146-.63-1.794-.63-.65-1.737-.65-1.279 0-2.024.802-.744.783-.744 2.348V18.5H42.54V8.955h1.66v1.375q.994-1.623 3.093-1.623m10.508 10.041q-2.157 0-3.589-1.432-1.431-1.45-1.431-3.588t1.431-3.57q1.432-1.45 3.59-1.451 1.412 0 2.538.687 1.127.668 1.68 1.814l-1.393.801a2.8 2.8 0 0 0-1.127-1.221q-.744-.458-1.699-.458-1.431 0-2.405.973-.954.993-.954 2.425 0 1.412.954 2.405.973.973 2.405.973.956 0 1.718-.439a3.07 3.07 0 0 0 1.165-1.221l1.412.82a4.67 4.67 0 0 1-1.775 1.814 4.9 4.9 0 0 1-2.52.668M68.491 8.707q1.68 0 2.691 1.069 1.012 1.05 1.012 2.863V18.5h-1.66v-5.765q0-1.146-.63-1.794-.63-.65-1.738-.65-1.28 0-2.023.802-.745.783-.745 2.348V18.5h-1.66V5.137h1.66v5.193q.993-1.623 3.093-1.623m15.185 5.784h-7.999q.248 1.26 1.164 1.986.917.705 2.291.706 1.89 0 2.75-1.394l1.412.802q-1.413 2.157-4.2 2.157-2.253 0-3.703-1.413-1.413-1.451-1.413-3.607 0-2.176 1.394-3.59 1.393-1.431 3.608-1.431 2.1 0 3.417 1.489 1.335 1.45 1.336 3.55 0 .363-.057.745m-4.696-4.219q-1.318 0-2.215.745-.878.744-1.088 2.023h6.376q-.21-1.317-1.05-2.042-.84-.726-2.023-.726m11.13 8.476q-2.158 0-3.59-1.432-1.431-1.45-1.431-3.588t1.432-3.57q1.431-1.45 3.588-1.451 1.412 0 2.54.687 1.125.668 1.68 1.814l-1.394.801a2.8 2.8 0 0 0-1.127-1.221q-.744-.458-1.699-.458-1.431 0-2.405.973-.954.993-.954 2.425 0 1.412.954 2.405.974.973 2.405.973.956 0 1.719-.439.764-.457 1.164-1.221l1.413.82a4.67 4.67 0 0 1-1.776 1.814 4.9 4.9 0 0 1-2.52.668m9.294-5.173 4.715 4.925h-2.061l-4.353-4.524V18.5h-1.66V5.137h1.66v8.037l4.124-4.219h2.138z"/></svg>
